X: 11284
T: E Flat, The
R: reel
M: 4/4
K: Fdorian
B2|:cBGc BEEG|AFDF ECB,G,|A,CFA G,B,EG|FdEc BGFB|
cBGc BEEG|AFDF ECB,G,|A,CFA G,B,EG|1 FB,DF E2AB:|2 FB,DF E2ed||
|:cAED CEAc|BAGA BGeB|defd Bafd|edef gced|
cAcd eged|cAED CEAc|BAGA BEGB|1 AFDF E2ed:|2 AFDF E2AB||

